cached_logos/open-policy-containers.svg

<svg xmlns="http://www.w3.org/2000/svg" role="img" viewBox="-10.24 -9.74 495.98 532.48"><title>Open Policy Containers logo</title><path fill="url(#paint0_linear_43_52)" d="M236.655 336.108l148.742-94.046 27.292-196.1694-176.034 70.1754v220.04z"/><path fill="url(#paint1_linear_43_52)" d="M63 45.8926L90.3472 242.085l146.3078 94.023v-220.04L63 45.8926z"/><path fill="#25225E" d="M236.655 116.073L63 45.8977 236.655.7002l176.034 45.1975-176.034 70.1753z"/><path fill="#3553BF" d="M324.024 273.05c-11.499 12.344-33.934 11.149-48.696-1.621-14.798-12.792-17.748-31.084-7.815-41.775 5.215-5.224 33.892-31.306 55.84-61.181 23.179-28.92 39.629-61.634 48.809-58.081 8.957 3.029 8.984 44.5-4.587 82.709-11.997 38.828-37.592 74.396-43.551 79.949z"/><path fill="#213FAB" d="M296.978 218.53c11.508-3.8 71.519-31.906 73.009-32.714-.75 2.433-1.554 4.864-2.413 7.282-11.997 38.829-37.592 74.397-43.551 79.948-11.499 12.345-33.934 11.15-48.697-1.62-5.572-4.817-9.463-10.414-11.62-16.091.566-2.756 1.544-26.33 33.272-36.805z"/><path fill="#5271E1" d="M334.785 305.597c-15.522 6.612-35.537-3.593-43.841-21.257-8.328-17.699-3.593-35.614 9.824-41.35 6.887-2.654 43.686-14.841 75.876-33.229 32.928-17.014 61.246-40.228 68.191-33.252 6.954 6.406-9.864 44.313-37.783 73.717-26.733 30.61-64.567 52.717-72.267 55.371z"/><path fill="#3553BF" d="M402.35 218.738c-1.731 4.898-3.681 9.815-5.864 14.658-15.154 37.709-43.591 71.05-49.987 76.091-12.476 11.357-34.736 8.319-48.397-5.623-13.695-13.966-15.128-32.44-4.35-42.277 1.071-.908 102.892-40.084 108.598-42.849z"/><path fill="#0086FF" d="M322.488 334.904c-16.869-.258-31.02-17.707-31.441-37.22-.428-19.556 11.173-34.007 25.762-33.803 7.372.369 45.95 4.166 82.831.428 36.998-2.186 72.301-11.909 75.818-2.713 3.756 8.677-27.001 36.496-64.451 52.037-36.853 17.123-80.405 21.972-88.519 21.271z"/><path fill="#3553BF" d="M151.744 273.05c11.5 12.344 33.934 11.149 48.697-1.62 14.798-12.793 17.747-31.085 7.815-41.777-5.215-5.223-33.892-31.305-55.84-61.18-23.18-28.92-39.629-61.634-48.81-58.081-8.9561 3.029-8.9835 44.5 4.588 82.709 11.996 38.828 37.592 74.396 43.55 79.949z"/><path fill="#213FAB" d="M178.785 218.53c-11.509-3.8-71.52-31.906-73.011-32.714.751 2.433 1.555 4.864 2.414 7.282 11.997 38.829 37.592 74.397 43.551 79.948 11.5 12.345 33.934 11.15 48.696-1.62 5.573-4.817 9.464-10.414 11.621-16.091-.566-2.756-1.544-26.33-33.271-36.805z"/><path fill="#5271E1" d="M140.982 305.596c15.521 6.612 35.536-3.593 43.841-21.257 8.328-17.698 3.593-35.613-9.825-41.349-6.886-2.655-43.685-14.841-75.8753-33.229-32.9271-17.014-61.2459-40.228-68.1909-33.252-6.9544 6.406 9.8637 44.312 37.7824 73.717 26.7331 30.609 64.5688 52.716 72.2678 55.37z"/><path fill="#3553BF" d="M72.3044 218.738c1.7299 4.898 3.6807 9.815 5.8641 14.657 15.1533 37.709 43.5905 71.05 49.9865 76.091 12.477 11.357 34.736 8.318 48.398-5.624 13.694-13.966 15.127-32.44 4.349-42.277-1.071-.908-102.8916-40.082-108.5976-42.847z"/><path fill="#0086FF" d="M153.284 334.905c16.868-.259 31.019-17.708 31.44-37.221.427-19.556-11.172-34.006-25.762-33.803-7.372.369-45.949 4.167-82.831.427-36.9992-2.186-72.30265-11.907-75.8198-2.712-3.75596 8.677 27.0008 36.496 64.4507 52.037 36.8561 17.123 80.4091 21.972 88.5221 21.272z"/><path fill="url(#paint2_linear_43_52)" d="M356.533 311.451c0 65.527-53.121 74.205-118.647 74.205-65.527 0-118.647-8.68-118.647-74.205 0-65.527 53.118-127.034 118.646-127.034 65.527 0 118.648 61.507 118.648 127.034z"/><path fill="#fff" d="M215.192 216.341c-10.139 3.495-19.025 8.919-26.412 16.121-2.88 2.807-7.49 2.749-10.299-.132-2.807-2.88-2.748-7.49.132-10.298 8.937-8.712 19.647-15.26 31.83-19.462 3.802-1.311 7.953.707 9.257 4.51 1.758 5.119-3.459 8.899-4.508 9.261z"/><path fill="#121212" d="M164.091 296.337c7.409 0 13.416-6.006 13.416-13.415 0-7.409-6.007-13.416-13.416-13.416-7.409 0-13.415 6.007-13.415 13.416 0 7.409 6.006 13.415 13.415 13.415zm149.253 0c7.409 0 13.415-6.007 13.415-13.416 0-7.409-6.006-13.415-13.415-13.415-7.409 0-13.415 6.006-13.415 13.415 0 7.409 6.006 13.416 13.415 13.416zm-76.775 41.497c9.128 0 17.578-1.32 25.351-3.958 7.773-2.639 14.976-6.525 21.608-11.659l4.813 7.059c-6.774 5.563-14.583 10.02-23.426 13.371-8.771 3.423-18.22 5.135-28.346 5.135-10.126 0-19.611-1.712-28.454-5.135-8.771-3.351-16.544-7.808-23.319-13.371l4.814-7.059c6.632 5.134 13.835 9.02 21.608 11.659 7.773 2.638 16.223 3.958 25.351 3.958z"/><path d="M169.332 447.875c0 5.74-.76 10.804-2.279 15.194-1.519 4.389-3.714 8.145-6.584 11.268-2.785 3.039-6.246 5.36-10.382 6.964-4.052 1.519-8.568 2.279-13.548 2.279-4.727 0-9.074-.76-13.041-2.279-3.967-1.604-7.428-3.925-10.382-6.964-2.87-3.123-5.107-6.879-6.71-11.268-1.604-4.39-2.406-9.454-2.406-15.194 0-7.596 1.308-14.012 3.925-19.245 2.617-5.318 6.373-9.327 11.268-12.028 4.981-2.785 10.847-4.178 17.6-4.178 6.415 0 12.028 1.393 16.839 4.178 4.896 2.701 8.736 6.71 11.522 12.028 2.785 5.233 4.178 11.649 4.178 19.245zm-48.999 0c0 4.811.549 8.947 1.646 12.408 1.182 3.377 2.954 5.951 5.318 7.724 2.447 1.772 5.571 2.658 9.369 2.658 3.883 0 7.006-.886 9.369-2.658 2.448-1.773 4.221-4.347 5.318-7.724 1.097-3.461 1.646-7.597 1.646-12.408 0-4.895-.591-8.989-1.773-12.281-1.097-3.376-2.87-5.909-5.317-7.597-2.364-1.772-5.445-2.659-9.243-2.659-5.74 0-9.918 1.942-12.535 5.824-2.532 3.883-3.798 9.454-3.798 16.713zm101.576-35.451c8.018 0 14.476 2.996 19.371 8.989 4.896 5.909 7.344 14.73 7.344 26.462 0 7.766-1.14 14.307-3.419 19.625s-5.444 9.327-9.496 12.028c-4.051 2.701-8.778 4.052-14.18 4.052-3.292 0-6.204-.422-8.737-1.266-2.532-.929-4.684-2.068-6.457-3.419-1.772-1.435-3.292-2.954-4.558-4.558h-1.013c.338 1.52.591 3.25.76 5.191.169 1.857.253 3.63.253 5.318v27.855h-15.953V413.69h12.915l2.279 9.116h.759c1.266-1.941 2.786-3.672 4.558-5.191 1.857-1.604 4.052-2.87 6.584-3.798 2.617-.929 5.613-1.393 8.99-1.393zm-4.558 12.914c-3.714 0-6.711.76-8.99 2.279-2.279 1.435-3.925 3.672-4.938 6.711-1.013 3.038-1.561 6.837-1.646 11.395v2.026c0 4.895.464 9.031 1.393 12.408 1.013 3.376 2.659 5.95 4.938 7.723 2.363 1.773 5.529 2.659 9.496 2.659 3.376 0 6.119-.929 8.23-2.786 2.194-1.857 3.798-4.473 4.811-7.85 1.097-3.46 1.646-7.554 1.646-12.281 0-7.09-1.224-12.577-3.672-16.46-2.363-3.882-6.12-5.824-11.268-5.824zm75.457 58.242c-6.499 0-12.154-1.224-16.966-3.672-4.726-2.532-8.398-6.373-11.015-11.522-2.532-5.233-3.798-11.901-3.798-20.004 0-8.441 1.392-15.278 4.178-20.511 2.87-5.318 6.795-9.201 11.775-11.649 4.98-2.532 10.678-3.798 17.093-3.798 4.304 0 8.145.422 11.521 1.266 3.377.844 6.246 1.857 8.61 3.039l-4.685 12.534c-2.616-1.013-5.233-1.857-7.85-2.532-2.616-.76-5.149-1.14-7.596-1.14-3.799 0-6.964.845-9.496 2.533-2.448 1.688-4.263 4.22-5.445 7.596-1.181 3.292-1.772 7.471-1.772 12.535 0 4.896.591 8.99 1.772 12.281 1.266 3.292 3.123 5.782 5.571 7.471 2.448 1.603 5.487 2.405 9.116 2.405 3.883 0 7.302-.464 10.256-1.393 2.954-.928 5.74-2.194 8.356-3.798v13.801c-2.616 1.604-5.444 2.743-8.483 3.418-2.954.76-6.668 1.14-11.142 1.14zm71.66-71.156c1.013 0 2.195.042 3.545.126 1.351.085 2.49.254 3.419.507l-1.393 14.814c-.76-.169-1.773-.296-3.039-.38-1.182-.169-2.237-.254-3.165-.254-2.532 0-4.98.422-7.344 1.267-2.279.759-4.347 1.941-6.204 3.545-1.772 1.519-3.207 3.503-4.304 5.95-1.013 2.448-1.52 5.36-1.52 8.737v35.578H328.51V413.69h12.281l2.279 11.901h.76c1.351-2.447 3.039-4.642 5.065-6.583 2.025-2.026 4.347-3.63 6.963-4.812 2.701-1.181 5.571-1.772 8.61-1.772z"/><defs><linearGradient id="paint0_linear_43_52" x1="329.43" x2="352.028" y1="183.869" y2="11.404" gradientUnits="userSpaceOnUse"><stop stop-color="#837BFF"/><stop offset="1" stop-color="#5371DD"/></linearGradient><linearGradient id="paint1_linear_43_52" x1="112.956" x2="162.911" y1="191.005" y2="122.019" gradientUnits="userSpaceOnUse"><stop stop-color="#0086FF"/><stop offset="1" stop-color="#5371DD"/></linearGradient><linearGradient id="paint2_linear_43_52" x1="237.886" x2="237.886" y1="184.417" y2="385.656" gradientUnits="userSpaceOnUse"><stop stop-color="#93EAFF"/><stop offset="1" stop-color="#0086FF"/></linearGradient></defs></svg>

<svg viewBox="0 0 476 513" fill="none" xmlns="http://www.w3.org/2000/svg">
<path d="M236.655 336.108L385.397 242.062L412.689 45.8926L236.655 116.068V336.108Z" fill="url(#paint0_linear_43_52)"/>
<path d="M63 45.8926L90.3472 242.085L236.655 336.108V116.068L63 45.8926Z" fill="url(#paint1_linear_43_52)"/>
<path d="M236.655 116.073L63 45.8977L236.655 0.700195L412.689 45.8977L236.655 116.073Z" fill="#25225E"/>
<path d="M324.024 273.05C312.525 285.394 290.09 284.199 275.328 271.429C260.53 258.637 257.58 240.345 267.513 229.654C272.728 224.43 301.405 198.348 323.353 168.473C346.532 139.553 362.982 106.839 372.162 110.392C381.119 113.421 381.146 154.892 367.575 193.101C355.578 231.929 329.983 267.497 324.024 273.05Z" fill="#3553BF"/>
<path d="M296.978 218.53C308.486 214.73 368.497 186.624 369.987 185.816C369.237 188.249 368.433 190.68 367.574 193.098C355.577 231.927 329.982 267.495 324.023 273.046C312.524 285.391 290.089 284.196 275.326 271.426C269.754 266.609 265.863 261.012 263.706 255.335C264.272 252.579 265.25 229.005 296.978 218.53Z" fill="#213FAB"/>
<path d="M334.785 305.597C319.263 312.209 299.248 302.004 290.944 284.34C282.616 266.641 287.351 248.726 300.768 242.99C307.655 240.336 344.454 228.149 376.644 209.761C409.572 192.747 437.89 169.533 444.835 176.509C451.789 182.915 434.971 220.822 407.052 250.226C380.319 280.836 342.485 302.943 334.785 305.597Z" fill="#5271E1"/>
<path d="M402.35 218.738C400.619 223.636 398.669 228.553 396.486 233.396C381.332 271.105 352.895 304.446 346.499 309.487C334.023 320.844 311.763 317.806 298.102 303.864C284.407 289.898 282.974 271.424 293.752 261.587C294.823 260.679 396.644 221.503 402.35 218.738Z" fill="#3553BF"/>
<path d="M322.488 334.904C305.619 334.646 291.468 317.197 291.047 297.684C290.619 278.128 302.22 263.677 316.809 263.881C324.181 264.25 362.759 268.047 399.64 264.309C436.638 262.123 471.941 252.4 475.458 261.596C479.214 270.273 448.457 298.092 411.007 313.633C374.154 330.756 330.602 335.605 322.488 334.904Z" fill="#0086FF"/>
<path d="M151.744 273.05C163.244 285.394 185.678 284.199 200.441 271.43C215.239 258.637 218.188 240.345 208.256 229.653C203.041 224.43 174.364 198.348 152.416 168.473C129.236 139.553 112.787 106.839 103.606 110.392C94.6499 113.421 94.6225 154.892 108.194 193.101C120.19 231.929 145.786 267.497 151.744 273.05Z" fill="#3553BF"/>
<path d="M178.785 218.53C167.276 214.73 107.265 186.624 105.774 185.816C106.525 188.249 107.329 190.68 108.188 193.098C120.185 231.927 145.78 267.495 151.739 273.046C163.239 285.391 185.673 284.196 200.435 271.426C206.008 266.609 209.899 261.012 212.056 255.335C211.49 252.579 210.512 229.005 178.785 218.53Z" fill="#213FAB"/>
<path d="M140.982 305.596C156.503 312.208 176.518 302.003 184.823 284.339C193.151 266.641 188.416 248.726 174.998 242.99C168.112 240.335 131.313 228.149 99.1227 209.761C66.1956 192.747 37.8768 169.533 30.9318 176.509C23.9774 182.915 40.7955 220.821 68.7142 250.226C95.4473 280.835 133.283 302.942 140.982 305.596Z" fill="#5271E1"/>
<path d="M72.3044 218.738C74.0343 223.636 75.9851 228.553 78.1685 233.395C93.3218 271.104 121.759 304.445 128.155 309.486C140.632 320.843 162.891 317.804 176.553 303.862C190.247 289.896 191.68 271.422 180.902 261.585C179.831 260.677 78.0104 221.503 72.3044 218.738Z" fill="#3553BF"/>
<path d="M153.284 334.905C170.152 334.646 184.303 317.197 184.724 297.684C185.151 278.128 173.552 263.678 158.962 263.881C151.59 264.25 113.013 268.048 76.131 264.308C39.1318 262.122 3.82835 252.401 0.311203 261.596C-3.44476 270.273 27.312 298.092 64.7619 313.633C101.618 330.756 145.171 335.605 153.284 334.905Z" fill="#0086FF"/>
<path d="M356.533 311.451C356.533 376.978 303.412 385.656 237.886 385.656C172.359 385.656 119.239 376.976 119.239 311.451C119.239 245.924 172.357 184.417 237.885 184.417C303.412 184.417 356.533 245.924 356.533 311.451Z" fill="url(#paint2_linear_43_52)"/>
<path d="M215.192 216.341C205.053 219.836 196.167 225.26 188.78 232.462C185.9 235.269 181.29 235.211 178.481 232.33C175.674 229.45 175.733 224.84 178.613 222.032C187.55 213.32 198.26 206.772 210.443 202.57C214.245 201.259 218.396 203.277 219.7 207.08C221.458 212.199 216.241 215.979 215.192 216.341Z" fill="white"/>
<path d="M164.091 296.337C171.5 296.337 177.507 290.331 177.507 282.922C177.507 275.513 171.5 269.506 164.091 269.506C156.682 269.506 150.676 275.513 150.676 282.922C150.676 290.331 156.682 296.337 164.091 296.337Z" fill="#121212"/>
<path d="M313.344 296.337C320.753 296.337 326.759 290.33 326.759 282.921C326.759 275.512 320.753 269.506 313.344 269.506C305.935 269.506 299.929 275.512 299.929 282.921C299.929 290.33 305.935 296.337 313.344 296.337Z" fill="#121212"/>
<path d="M236.569 337.834C245.697 337.834 254.147 336.514 261.92 333.876C269.693 331.237 276.896 327.351 283.528 322.217L288.341 329.276C281.567 334.839 273.758 339.296 264.915 342.647C256.144 346.07 246.695 347.782 236.569 347.782C226.443 347.782 216.958 346.07 208.115 342.647C199.344 339.296 191.571 334.839 184.796 329.276L189.61 322.217C196.242 327.351 203.445 331.237 211.218 333.876C218.991 336.514 227.441 337.834 236.569 337.834Z" fill="#121212"/>
<path d="M169.332 447.875C169.332 453.615 168.572 458.679 167.053 463.069C165.534 467.458 163.339 471.214 160.469 474.337C157.684 477.376 154.223 479.697 150.087 481.301C146.035 482.82 141.519 483.58 136.539 483.58C131.812 483.58 127.465 482.82 123.498 481.301C119.531 479.697 116.07 477.376 113.116 474.337C110.246 471.214 108.009 467.458 106.406 463.069C104.802 458.679 104 453.615 104 447.875C104 440.279 105.308 433.863 107.925 428.63C110.542 423.312 114.298 419.303 119.193 416.602C124.174 413.817 130.04 412.424 136.793 412.424C143.208 412.424 148.821 413.817 153.632 416.602C158.528 419.303 162.368 423.312 165.154 428.63C167.939 433.863 169.332 440.279 169.332 447.875ZM120.333 447.875C120.333 452.686 120.882 456.822 121.979 460.283C123.161 463.66 124.933 466.234 127.297 468.007C129.744 469.779 132.868 470.665 136.666 470.665C140.549 470.665 143.672 469.779 146.035 468.007C148.483 466.234 150.256 463.66 151.353 460.283C152.45 456.822 152.999 452.686 152.999 447.875C152.999 442.98 152.408 438.886 151.226 435.594C150.129 432.218 148.356 429.685 145.909 427.997C143.545 426.225 140.464 425.338 136.666 425.338C130.926 425.338 126.748 427.28 124.131 431.162C121.599 435.045 120.333 440.616 120.333 447.875Z" fill="black"/>
<path d="M221.909 412.424C229.927 412.424 236.385 415.42 241.28 421.413C246.176 427.322 248.624 436.143 248.624 447.875C248.624 455.641 247.484 462.182 245.205 467.5C242.926 472.818 239.761 476.827 235.709 479.528C231.658 482.229 226.931 483.58 221.529 483.58C218.237 483.58 215.325 483.158 212.792 482.314C210.26 481.385 208.108 480.246 206.335 478.895C204.563 477.46 203.043 475.941 201.777 474.337H200.764C201.102 475.857 201.355 477.587 201.524 479.528C201.693 481.385 201.777 483.158 201.777 484.846V512.701H185.824V413.69H198.739L201.018 422.806H201.777C203.043 420.865 204.563 419.134 206.335 417.615C208.192 416.011 210.387 414.745 212.919 413.817C215.536 412.888 218.532 412.424 221.909 412.424ZM217.351 425.338C213.637 425.338 210.64 426.098 208.361 427.617C206.082 429.052 204.436 431.289 203.423 434.328C202.41 437.366 201.862 441.165 201.777 445.723V447.749C201.777 452.644 202.241 456.78 203.17 460.157C204.183 463.533 205.829 466.107 208.108 467.88C210.471 469.653 213.637 470.539 217.604 470.539C220.98 470.539 223.723 469.61 225.834 467.753C228.028 465.896 229.632 463.28 230.645 459.903C231.742 456.443 232.291 452.349 232.291 447.622C232.291 440.532 231.067 435.045 228.619 431.162C226.256 427.28 222.499 425.338 217.351 425.338Z" fill="black"/>
<path d="M292.808 483.58C286.309 483.58 280.654 482.356 275.842 479.908C271.116 477.376 267.444 473.535 264.827 468.386C262.295 463.153 261.029 456.485 261.029 448.382C261.029 439.941 262.421 433.104 265.207 427.871C268.077 422.553 272.002 418.67 276.982 416.222C281.962 413.69 287.66 412.424 294.075 412.424C298.379 412.424 302.22 412.846 305.596 413.69C308.973 414.534 311.842 415.547 314.206 416.729L309.521 429.263C306.905 428.25 304.288 427.406 301.671 426.731C299.055 425.971 296.522 425.591 294.075 425.591C290.276 425.591 287.111 426.436 284.579 428.124C282.131 429.812 280.316 432.344 279.134 435.72C277.953 439.012 277.362 443.191 277.362 448.255C277.362 453.151 277.953 457.245 279.134 460.536C280.4 463.828 282.257 466.318 284.705 468.007C287.153 469.61 290.192 470.412 293.821 470.412C297.704 470.412 301.123 469.948 304.077 469.019C307.031 468.091 309.817 466.825 312.433 465.221V479.022C309.817 480.626 306.989 481.765 303.95 482.44C300.996 483.2 297.282 483.58 292.808 483.58Z" fill="black"/>
<path d="M364.468 412.424C365.481 412.424 366.663 412.466 368.013 412.55C369.364 412.635 370.503 412.804 371.432 413.057L370.039 427.871C369.279 427.702 368.266 427.575 367 427.491C365.818 427.322 364.763 427.237 363.835 427.237C361.303 427.237 358.855 427.659 356.491 428.504C354.212 429.263 352.144 430.445 350.287 432.049C348.515 433.568 347.08 435.552 345.983 437.999C344.97 440.447 344.463 443.359 344.463 446.736V482.314H328.51V413.69H340.791L343.07 425.591H343.83C345.181 423.144 346.869 420.949 348.895 419.008C350.92 416.982 353.242 415.378 355.858 414.196C358.559 413.015 361.429 412.424 364.468 412.424Z" fill="black"/>
<defs>
<linearGradient id="paint0_linear_43_52" x1="329.43" y1="183.869" x2="352.028" y2="11.4043" gradientUnits="userSpaceOnUse">
<stop stop-color="#837BFF"/>
<stop offset="1" stop-color="#5371DD"/>
</linearGradient>
<linearGradient id="paint1_linear_43_52" x1="112.956" y1="191.005" x2="162.911" y2="122.019" gradientUnits="userSpaceOnUse">
<stop stop-color="#0086FF"/>
<stop offset="1" stop-color="#5371DD"/>
</linearGradient>
<linearGradient id="paint2_linear_43_52" x1="237.886" y1="184.417" x2="237.886" y2="385.656" gradientUnits="userSpaceOnUse">
<stop stop-color="#93EAFF"/>
<stop offset="1" stop-color="#0086FF"/>
</linearGradient>
</defs>
</svg>
